X:76
T:Polska efter Lissmyr Erik
R:Polska
B:Jämför EÖ nr 315
Z:Anton Teljebäck 2007-12-06
S:Efter Lissmyr Erik Persson
S:Känd genom Kalle Almlöf
O:Västrafors, Malung, Dalarna
M:3/4
L:1/8
K:Dm
|:A>a a<a g>a | f>f e<d e>(f | e)>(^c A)>c d>e | (3fdf e>^c A2 | 
A>a a<a g>a | f>f e<d e>(f | e)>(^c A)>c d>e |(3fe^c d4 :|
|:(d>^c) (A>c) d>e | f>f- (3fed e>f | e>^c (A>c) d>e | (3fdf e>^c A2 | 
(d>^c) (A>c) d>e | f>f- (3fed e>f | e>^c (A>c) d>e |(3fe^c d4 :|
(:musicend:)

(:music:)
